X: 1012
T: Her Telden Ol Meh Çalmıyor
C: Şakir Ağa
O: Turkey
F: http://compmusic.upf.edu/node/140
N: rast--sarki--duyek--her_telden--sakir_aga
N: makam= rast
N: form= sarki
N: usul= duyek = 8/4
M: 8/4
L: 1/16
K: C _1/4B ^f  
Q: 1/4=120
%%MIDI tuningsystem comma53
z2 G4 B2 A2 c2 B2 d2  | c2 de d2 c2 B3A G4  | \
w:   |   | 
z2 A4 c2 B2 G2 A2 F2  | 
w:   | 
G3B A2 G2 F3E D4  | z2 G4 B2 A2 c2 B2 d2  | \
w:   |   | 
c2 de d2 c2 B3A G4  | 
w:   | 
z2 A4 c2 B2 G2 A2 F2  | G3D E2 F2 G2 BA G4  | \
w:   |   | 
z2 G4 B2 A2 c2 B2 d2  | 
w:  Her  *  tel  | 
d2 c4 cB B3A BA G2  | z2 c4 B2 c3B c2 de  | \
w:  *  den_ *  *  ol  *  meh   |  çal *  *  *  *  mı  | 
c2 d4 cB dc BA G4  | 
w:  yor    | 
z2 G4 B2 A2 c2 B2 d2  | d2 c4 cB B3A BA G2  | \
w:  Her  *  tel  |  *  den_ *  *  ol  *  meh   | 
z2 g4 gf f3d e2 {f}ed  | 
w:  çal *  *  *  *  *  *  mı  | 
d3A B2 ^c2 d2 fe d4  | z2 d6 d4 d2 g2  | \
w:  yor   SAZ  |  Ben zâ rın   | 
g2 de d2 c2 ed ec B2 d2  | 
w:  *  â  | 
d2 c4 cB B3G A2 {B}AG  | G3A B2 c2 dc Bc d4  | \
w:  *  hın_ *  *  al *  *  *  mı  |  yor   SAZ  | 
z2 d6 d4 d2 g2  | 
w:  Ben zâ rın   | 
g2 de d2 c2 ed ec B2 d2  | d2 c4 cB B3G A2 {B}AG  | \
w:  *  â  |  *  hın_ *  *  al *  *  *  mı  | 
G3D E2 F2 G2 BA G4  | 
w:  yor   SAZ  | 
z2 d6 ed d^c d4  | e2 de f2 ef g2 fg a2 b2  | \
w:  Fer dâ *  *  *  ya   |  ger  | 
g2 c'2 b2 a2 g3f ef ga  | 
w:  *  çi  *  *  sal *  *  *  mı  | 
f2 g4 =fe de dc BA G2  | z2 d6 ed d^c d4  | \
w:  yor   *  SAZ  |  Fer dâ *  *  *  ya   | 
e2 de f2 ef g2 fe ed dc  | 
w:  ger  | 
B2 g4 gf f3d e2 {f}ed  | d3A B2 ^c2 d2 fe d4  | \
w:  *  çi  *  *  sal *  *  *  mı  |  yor   SAZ  | 
z2 d6 d4 d2 g2  | 
w:  Ben zâ rın   | 
g2 de d2 c2 ed ec B2 d2  | d2 c4 cB B3G A2 {B}AG  | \
w:  *  â  |  *  hın_ *  *  al *  *  *  mı  | 
G3A B2 c2 dc Bc d4  | 
w:  yor   SAZ  | 
z2 d6 d4 d2 g2  | g2 de d2 c2 ed ec B2 d2  | \
w:  Ben zâ rın   |  *  â  | 
d2 c4 cB B3G A2 {B}AG  | 
w:  *  hın_ *  *  al *  *  *  mı  | 
G3D E2 F2 G2 BA G4  | |


